packages/gestalt-icons-android/vr-theme/ic_vr_move-pin_gestalt.svg

<svg width="24" height="24" viewBox="0 0 24 24" fill="none" xmlns="http://www.w3.org/2000/svg">
<path fill-rule="evenodd" clip-rule="evenodd" d="M19.5856 11.0001L15.2927 15.293L16.707 16.7072L23.4141 10.0001L16.707 3.29297L15.2927 4.70718L19.5856 9.00007L5.99985 9.00007C3.23842 9.00007 0.999849 11.2386 0.999848 14.0001L0.999848 20.0001L2.99985 20.0001L2.99985 14.0001C2.99985 12.3432 4.34299 11.0001 5.99985 11.0001L19.5856 11.0001Z" fill="black"/>
</svg>

<svg xmlns="http://www.w3.org/2000/svg" width="24" height="24"><path d="m19.59 11-4.3 4.3 1.42 1.4 6.7-6.7-6.7-6.7-1.42 1.4L19.6 9H6a5 5 0 0 0-5 5v6h2v-6a3 3 0 0 1 3-3z"/></svg>
